assets/icons/standard/employee_organization.svg

<svg xmlns="http://www.w3.org/2000/svg" width="100" height="100" viewBox="0 0 100 100"><circle cx="63.3" cy="47.6" r="10.7" fill="#fff"/><path d="M63.6,60.3h-.8A16.43,16.43,0,0,0,46.7,74.2c0,.7.2,2.4,2.7,2.4H76.6c2.5,0,2.7-1.5,2.7-2.4A15.65,15.65,0,0,0,63.6,60.3Z" fill="#fff"/><path d="M48.6,58.3c.4-.4.1-.7.1-.7h0a17.94,17.94,0,0,1-3.1-10,17.18,17.18,0,0,1,3.2-10.2.1.1,0,0,1,.1-.1,1.76,1.76,0,0,0,.4-1.1V25.4a2.15,2.15,0,0,0-2-2H22.5a2.18,2.18,0,0,0-2,2.1V71.7H40a24.12,24.12,0,0,1,8.6-13.4ZM31.6,66a2.18,2.18,0,0,1-2.1,2.1H27.4A2.18,2.18,0,0,1,25.3,66V63.9a2.18,2.18,0,0,1,2.1-2.1h2.1a2.18,2.18,0,0,1,2.1,2.1Zm0-10.5a2.18,2.18,0,0,1-2.1,2.1H27.4a2.18,2.18,0,0,1-2.1-2.1V53.4a2.18,2.18,0,0,1,2.1-2.1h2.1a2.18,2.18,0,0,1,2.1,2.1Zm0-10.5a2.18,2.18,0,0,1-2.1,2.1H27.4A2.18,2.18,0,0,1,25.3,45V42.9a2.18,2.18,0,0,1,2.1-2.1h2.1a2.18,2.18,0,0,1,2.1,2.1Zm0-10.5a2.18,2.18,0,0,1-2.1,2.1H27.4a2.18,2.18,0,0,1-2.1-2.1V32.4a2.18,2.18,0,0,1,2.1-2.1h2.1a2.18,2.18,0,0,1,2.1,2.1Zm11.9,21a2.18,2.18,0,0,1-2.1,2.1H39.3a2.18,2.18,0,0,1-2.1-2.1V53.4a2.18,2.18,0,0,1,2.1-2.1h2.1a2.18,2.18,0,0,1,2.1,2.1Zm0-10.5a2.18,2.18,0,0,1-2.1,2.1H39.3A2.18,2.18,0,0,1,37.2,45V42.9a2.18,2.18,0,0,1,2.1-2.1h2.1a2.18,2.18,0,0,1,2.1,2.1Zm0-10.5a2.18,2.18,0,0,1-2.1,2.1H39.3a2.18,2.18,0,0,1-2.1-2.1V32.4a2.18,2.18,0,0,1,2.1-2.1h2.1a2.18,2.18,0,0,1,2.1,2.1Z" fill="#fff"/></svg>

<?xml version="1.0"?><svg xmlns="http://www.w3.org/2000/svg" width="100" height="100" viewBox="0 0 100 100"><title></title><circle cx="63.3" cy="47.6" r="10.7" fill="#fff"></circle><path d="m63.6 60.3h-0.8a16.4 16.4 0 0 0-16.1 13.9c0 0.7 0.2 2.4 2.7 2.4h27.2c2.5 0 2.7-1.5 2.7-2.4a15.7 15.7 0 0 0-15.7-13.9z m-15-2c0.4-0.4 0.1-0.7 0.1-0.7a17.9 17.9 0 0 1-3.1-10 17.2 17.2 0 0 1 3.2-10.2 0.1 0.1 0 0 1 0.1-0.1 1.8 1.8 0 0 0 0.4-1.1v-10.8a2.1 2.1 0 0 0-2-2h-24.8a2.2 2.2 0 0 0-2 2.1v46.2h19.5a24.1 24.1 0 0 1 8.6-13.4z m-17 7.7a2.2 2.2 0 0 1-2.1 2.1h-2.1a2.2 2.2 0 0 1-2.1-2.1v-2.1a2.2 2.2 0 0 1 2.1-2.1h2.1a2.2 2.2 0 0 1 2.1 2.1z m0-10.5a2.2 2.2 0 0 1-2.1 2.1h-2.1a2.2 2.2 0 0 1-2.1-2.1v-2.1a2.2 2.2 0 0 1 2.1-2.1h2.1a2.2 2.2 0 0 1 2.1 2.1z m0-10.5a2.2 2.2 0 0 1-2.1 2.1h-2.1a2.2 2.2 0 0 1-2.1-2.1v-2.1a2.2 2.2 0 0 1 2.1-2.1h2.1a2.2 2.2 0 0 1 2.1 2.1z m0-10.5a2.2 2.2 0 0 1-2.1 2.1h-2.1a2.2 2.2 0 0 1-2.1-2.1v-2.1a2.2 2.2 0 0 1 2.1-2.1h2.1a2.2 2.2 0 0 1 2.1 2.1z m11.9 21a2.2 2.2 0 0 1-2.1 2.1h-2.1a2.2 2.2 0 0 1-2.1-2.1v-2.1a2.2 2.2 0 0 1 2.1-2.1h2.1a2.2 2.2 0 0 1 2.1 2.1z m0-10.5a2.2 2.2 0 0 1-2.1 2.1h-2.1a2.2 2.2 0 0 1-2.1-2.1v-2.1a2.2 2.2 0 0 1 2.1-2.1h2.1a2.2 2.2 0 0 1 2.1 2.1z m0-10.5a2.2 2.2 0 0 1-2.1 2.1h-2.1a2.2 2.2 0 0 1-2.1-2.1v-2.1a2.2 2.2 0 0 1 2.1-2.1h2.1a2.2 2.2 0 0 1 2.1 2.1z" fill="#fff"></path></svg>
